icons/linear-ele-media-bell-notification.svg

<svg xmlns="http://www.w3.org/2000/svg" width="32px" height="32px" viewBox="0 0 32 32" version="1.1">
    <title>linear-ele-media-bell-notification</title>
    <g id="linear-ele-media-bell-notification" stroke-width="1" fill-rule="evenodd">
        <path d="M16,2 C17.1045695,2 18,2.8954305 18,4 C18,4.06705824 17.9966997,4.13334565 17.9902527,4.19870868 C22.5594524,5.12067309 26,9.15854507 26,14 L26,23 L29,23 C29.5522847,23 30,23.4477153 30,24 C30,24.5522847 29.5522847,25 29,25 L3,25 C2.44771525,25 2,24.5522847 2,24 C2,23.4477153 2.44771525,23 3,23 L6,23 L6,14 C6,9.15854507 9.44054761,5.12067309 14.0100191,4.19800783 C14.0033003,4.13334565 14,4.06705824 14,4 C14,2.8954305 14.8954305,2 16,2 Z M16,6 C11.581722,6 8,9.581722 8,14 L8,23 L24,23 L24,14 C24,9.581722 20.418278,6 16,6 Z M18.4500875,27.0004758 C18.4828187,27.1618833 18.5,27.3289352 18.5,27.5 C18.5,28.8807119 17.3807119,30 16,30 C14.6192881,30 13.5,28.8807119 13.5,27.5 C13.5,27.3289352 13.5171813,27.1618833 13.5499125,27.0004758 L18.4500875,27.0004758 Z" id="&#24418;&#29366;" fill-rule="nonzero" />
    </g>
</svg>

<svg xmlns="http://www.w3.org/2000/svg" viewBox="0 0 32 32"><path fill="currentColor" d="M16 2a2 2 0 0 1 1.99 2.199C22.56 5.12 26 9.159 26 14v9h3a1 1 0 0 1 0 2H3a1 1 0 0 1 0-2h3v-9c0-4.841 3.44-8.88 8.01-9.802A2 2 0 0 1 16 2m0 4a8 8 0 0 0-8 8v9h16v-9a8 8 0 0 0-8-8m2.45 21a2.5 2.5 0 1 1-4.9 0z"/></svg>
